src/assets/img/account_icon.svg

<svg width="20" height="20" viewBox="0 0 20 20" fill="none" xmlns="http://www.w3.org/2000/svg">
<path fill-rule="evenodd" clip-rule="evenodd" d="M0 10C0 4.579 4.579 0 10 0C15.421 0 20 4.579 20 10C20 13.19 18.408 16.078 16 17.924V18H15.898C14.23 19.245 12.187 20 10 20C7.813 20 5.77 19.245 4.102 18H4V17.924C1.592 16.078 0 13.189 0 10ZM7.12347 15.236C6.59154 15.6639 6.22136 16.2604 6.074 16.927C7.242 17.604 8.584 18 10 18C11.416 18 12.758 17.604 13.926 16.927C13.7785 16.2605 13.4082 15.6641 12.8764 15.2362C12.3445 14.8083 11.6827 14.5744 11 14.573H9C8.3173 14.5742 7.6554 14.808 7.12347 15.236ZM13.7677 13.4117C14.5877 13.9574 15.2286 14.7329 15.61 15.641C17.077 14.182 18 12.176 18 10C18 5.663 14.337 2 10 2C5.663 2 2 5.663 2 10C2 12.176 2.923 14.182 4.39 15.641C4.77144 14.7329 5.41227 13.9574 6.23227 13.4117C7.05227 12.866 8.01501 12.5742 9 12.573H11C11.985 12.5742 12.9477 12.866 13.7677 13.4117ZM6 8C6 5.72 7.72 4 10 4C12.28 4 14 5.72 14 8C14 10.28 12.28 12 10 12C7.72 12 6 10.28 6 8ZM8 8C8 9.178 8.822 10 10 10C11.178 10 12 9.178 12 8C12 6.822 11.178 6 10 6C8.822 6 8 6.822 8 8Z" fill="#9B9B9B"/>
</svg>

<?xml version="1.0" encoding="utf-8"?>
<!-- Generator: Adobe Illustrator 23.0.2, SVG Export Plug-In . SVG Version: 6.00 Build 0)  -->
<svg version="1.1" id="Слой_1" xmlns="http://www.w3.org/2000/svg" xmlns:xlink="http://www.w3.org/1999/xlink" x="0px" y="0px"
	 viewBox="0 0 20 20" style="enable-background:new 0 0 20 20;" xml:space="preserve">
<style type="text/css">
	.st0{fill-rule:evenodd;clip-rule:evenodd;fill:#9B9B9B;}
</style>
<path class="st0" d="M16,17.9L16,17.9L15.9,18c-1.7,1.2-3.7,2-5.9,2 M10,20c-2.2,0-4.2-0.8-5.9-2H4v-0.1c-2.4-1.8-4-4.7-4-7.9
	C0,4.6,4.6,0,10,0s10,4.6,10,10c0,3.2-1.6,6.1-4,7.9 M7.1,15.2c-0.5,0.4-0.9,1-1,1.7C7.2,17.6,8.6,18,10,18s2.8-0.4,3.9-1.1
	c-0.1-0.7-0.5-1.3-1-1.7c-0.5-0.4-1.2-0.7-1.9-0.7H9C8.3,14.6,7.7,14.8,7.1,15.2z M10,12.6h1c1,0,1.9,0.3,2.8,0.8
	c0.8,0.5,1.5,1.3,1.8,2.2c1.5-1.5,2.4-3.5,2.4-5.6c0-4.3-3.7-8-8-8s-8,3.7-8,8c0,2.2,0.9,4.2,2.4,5.6c0.4-0.9,1-1.7,1.8-2.2
	S8,12.6,9,12.6H10 M6,8c0-2.3,1.7-4,4-4s4,1.7,4,4s-1.7,4-4,4S6,10.3,6,8z M8,8c0,1.2,0.8,2,2,2s2-0.8,2-2s-0.8-2-2-2S8,6.8,8,8z"/>
</svg>
